X:1
T:Says my lord to his lady
T:Says my lord to his lady
T:Joseph Baildon (c.1727-1774)
T:www.sangerforum.no
T:www.sangerforum.no
C:Joseph Baildon (c.1727-1774)
Z:www.sangerforum.no
%%score [ 1 2 3 ]
L:1/8
Q:1/4=70
M:3/4
K:A
V:1 treble nm="I"
V:2 treble nm="II"
V:3 treble nm="III"
V:1
|: A G | A2 (A,B,) (CD) | E2 E2 D C | B,2 E2 E2 | A,4 c2 | B2 A2 G2 | A c3 z A | G2 (BA) (GF) | %8
w: Says my|lord to _ his _|la- dy, as to-|ge- ther they|lay, "Shall|we go to|sup- per, or|do you _ know _|
 E4 e d | c2 z2 e c | d2 z2 d c | B2 z2 d B | c2 (cB) (BA) | A2 z2 B F | G2 z2 E2 | A,2 D2 B,2 | %16
w: what, you know|what, you know|what, you know|what, you know|what, you _ know _|what, you know|what, shall|we go to|
 E2 C2 A,2 | D2 B,2 E2 | A,4 :| %19
w: sup- per, or|do you know|what?"|
V:2
|: c B | (ce) (ed) c2 | B4 B c | d3 c B2 | c2 A2 A A | G2 F2 E2 | E4 E E | E2 (GF) (E^D) | %8
w: With an|in- * no- * cent|smile, then re-|plied the good|la- dy, with an|in- no- cent|smile, then re-|plied the _ good _|
 E2 G2 c B | (^AG) (AB) (cA) | B2 z2 B A | (GF) (GA) (BG) | A2 (AG) (GF) | F3 F B,2 | E2 E2 c B | %15
w: la- dy, with an|in- * no- * cent _|smile, then re-|plied _ the _ good _|la- dy, _ re- *|plied the good|la- dy, with an|
 c2 A2 d2 | B2 A3 E | F3 B G2 | A2 A2 :| %19
w: in- no- cent|smile then re-|plied the good|la- dy:|
V:3
|: E E | (Ac) (cB) A2 | G4 G A | B3 A G2 | A4 A, A, | E2 B,2 (CB,) | A,2 z2 C2 | B, B,3 B2 | %8
w: "What you|please, _ my _ dear|lord, what you|please, my dear|lord, what you|please my dear _|lord, but|sup- per's not|
 G E3 z2 | z2 F2 F2 | B,2 C2 D2 | E2 E2 E2 | A,2 B,2 C2 | D3 D ^D2 | E4 A G | A2 F2 B2 | G2 z2 c2 | %17
w: rea- dy,|what you|please, my dear|lord, what you|please, my dear|lord, my dear|lord, what you|please my dear|lord, but|
 A2 d2 B2 | c c3 :| %19
w: sup- per's not|rea- dy."|

